images/ic_token_iusdt.svg

<svg height="250" viewBox="0 0 250 250" width="250" xmlns="http://www.w3.org/2000/svg" xmlns:xlink="http://www.w3.org/1999/xlink"><linearGradient id="a" gradientTransform="matrix(.976562 0 0 -.976562 0 251.249999)" gradientUnits="userSpaceOnUse" x1="239.360001" x2="34.560001" y1="17.92" y2="222.720001"><stop offset=".159" stop-color="#003cda"/><stop offset="1" stop-color="#33dfcc"/></linearGradient><path d="m125 48.242188c42.382812 0 76.757812 34.375 76.757812 76.757812 0 20.410156-8.105468 39.941406-22.460937 54.296875-21.972656 21.972656-54.980469 28.515625-83.691406 16.601563-28.710938-11.914063-47.363281-39.84375-47.363281-70.996094 0-42.285156 34.375-76.660156 76.757812-76.660156zm0-48.242188c-69.042969 0-125 55.957031-125 125s55.957031 125 125 125 125-55.957031 125-125-55.957031-125-125-125zm0 0" fill="url(#a)"/><path d="m125 222.65625c53.90625 0 97.65625-43.75 97.65625-97.65625s-43.75-97.65625-97.65625-97.65625-97.65625 43.75-97.65625 97.65625 43.75 97.65625 97.65625 97.65625zm0 0" fill="#fff"/><path d="m203.125 125c0 43.148438-34.976562 78.125-78.125 78.125s-78.125-34.976562-78.125-78.125 34.976562-78.125 78.125-78.125 78.125 34.976562 78.125 78.125zm0 0" fill="#26a17b"/><path d="m133.59375 131.640625c-.585938 0-3.417969.195313-9.667969.195313-4.980469 0-8.59375-.097657-9.765625-.195313-19.335937-.878906-33.691406-4.101563-33.691406-8.105469s14.453125-7.324218 33.691406-8.105468v12.890624c1.269532.097657 4.882813.292969 9.863282.292969 5.957031 0 8.984374-.292969 9.570312-.292969v-12.890624c19.238281.878906 33.691406 4.199218 33.691406 8.105468s-14.355468 7.226563-33.691406 8.105469zm0-17.578125v-11.621094h26.855469v-17.578125h-73.242188v17.675781h26.855469v11.621094c-21.875.976563-38.28125 5.273438-38.28125 10.351563s16.40625 9.375 38.28125 10.351562v37.109375h19.433594v-37.109375c21.875-.976562 38.28125-5.273437 38.28125-10.351562.097656-5.175781-16.308594-9.472657-38.183594-10.449219" fill="#fff"/></svg>

<svg xmlns="http://www.w3.org/2000/svg" xmlns:xlink="http://www.w3.org/1999/xlink" width="250px" height="250px" viewBox="0 0 250 250" version="1.1">
<defs>
<linearGradient id="linear0" gradientUnits="userSpaceOnUse" x1="239.360001" y1="17.92" x2="34.560001" y2="222.720001" gradientTransform="matrix(0.976562,0,0,-0.976562,0,251.249999)">
<stop offset="0.159" style="stop-color:rgb(0%,23.529412%,85.490197%);stop-opacity:1;"/>
<stop offset="1" style="stop-color:rgb(20%,87.450981%,80.000001%);stop-opacity:1;"/>
</linearGradient>
</defs>
<g id="surface1">
<path style=" stroke:none;fill-rule:nonzero;fill:url(#linear0);" d="M 125 48.242188 C 167.382812 48.242188 201.757812 82.617188 201.757812 125 C 201.757812 145.410156 193.652344 164.941406 179.296875 179.296875 C 157.324219 201.269531 124.316406 207.8125 95.605469 195.898438 C 66.894531 183.984375 48.242188 156.054688 48.242188 124.902344 C 48.242188 82.617188 82.617188 48.242188 125 48.242188 Z M 125 0 C 55.957031 0 0 55.957031 0 125 C 0 194.042969 55.957031 250 125 250 C 194.042969 250 250 194.042969 250 125 C 250 55.957031 194.042969 0 125 0 Z M 125 0 "/>
<path style=" stroke:none;fill-rule:nonzero;fill:rgb(100%,100%,100%);fill-opacity:1;" d="M 125 222.65625 C 178.90625 222.65625 222.65625 178.90625 222.65625 125 C 222.65625 71.09375 178.90625 27.34375 125 27.34375 C 71.09375 27.34375 27.34375 71.09375 27.34375 125 C 27.34375 178.90625 71.09375 222.65625 125 222.65625 Z M 125 222.65625 "/>
<path style=" stroke:none;fill-rule:nonzero;fill:rgb(14.901961%,63.137257%,48.235294%);fill-opacity:1;" d="M 203.125 125 C 203.125 168.148438 168.148438 203.125 125 203.125 C 81.851562 203.125 46.875 168.148438 46.875 125 C 46.875 81.851562 81.851562 46.875 125 46.875 C 168.148438 46.875 203.125 81.851562 203.125 125 Z M 203.125 125 "/>
<path style=" stroke:none;fill-rule:nonzero;fill:rgb(100%,100%,100%);fill-opacity:1;" d="M 133.59375 131.640625 C 133.007812 131.640625 130.175781 131.835938 123.925781 131.835938 C 118.945312 131.835938 115.332031 131.738281 114.160156 131.640625 C 94.824219 130.761719 80.46875 127.539062 80.46875 123.535156 C 80.46875 119.53125 94.921875 116.210938 114.160156 115.429688 L 114.160156 128.320312 C 115.429688 128.417969 119.042969 128.613281 124.023438 128.613281 C 129.980469 128.613281 133.007812 128.320312 133.59375 128.320312 L 133.59375 115.429688 C 152.832031 116.308594 167.285156 119.628906 167.285156 123.535156 C 167.285156 127.441406 152.929688 130.761719 133.59375 131.640625 Z M 133.59375 114.0625 L 133.59375 102.441406 L 160.449219 102.441406 L 160.449219 84.863281 L 87.207031 84.863281 L 87.207031 102.539062 L 114.0625 102.539062 L 114.0625 114.160156 C 92.1875 115.136719 75.78125 119.433594 75.78125 124.511719 C 75.78125 129.589844 92.1875 133.886719 114.0625 134.863281 L 114.0625 171.972656 L 133.496094 171.972656 L 133.496094 134.863281 C 155.371094 133.886719 171.777344 129.589844 171.777344 124.511719 C 171.875 119.335938 155.46875 115.039062 133.59375 114.0625 "/>
</g>
</svg>
